src/ButtonClicked.svg

<svg width="81" height="60" viewBox="0 0 81 60" fill="none" xmlns="http://www.w3.org/2000/svg">
<rect width="80.5718" height="48" transform="translate(0 6)" fill="#2E2E2E"/>
<g opacity="0.3" filter="url(#filter0_f_433_647)">
<ellipse cx="40" cy="30.2724" rx="20" ry="26" transform="rotate(20 40 30.2724)" fill="black"/>
</g>
<path d="M56.7104 24.1841H54.439V28.3442H54.4067C54.1508 27.939 53.7988 27.6348 53.3511 27.4321C52.9137 27.2188 52.4492 27.1118 51.9585 27.1118C51.3506 27.1118 50.8175 27.2347 50.3589 27.48C49.9002 27.7146 49.5159 28.0296 49.2065 28.4243L49.0981 28.5747C48.8519 28.9341 48.6591 29.3428 48.519 29.8003C48.3698 30.3122 48.2944 30.8453 48.2944 31.3999L48.3091 31.8276C48.3371 32.2517 48.407 32.6639 48.519 33.064L47.8823 33.2544V30.52C47.8823 30.008 47.8338 29.5434 47.7378 29.1274C47.6524 28.701 47.4978 28.344 47.2739 28.0562C47.2671 28.0471 47.2594 28.0387 47.2524 28.0298C47.391 27.7766 47.5468 27.533 47.7222 27.3013L47.7417 27.2759C48.2221 26.663 48.8192 26.1768 49.5112 25.8228V25.8237C50.2741 25.4227 51.1073 25.2505 51.9585 25.2505C52.167 25.2505 52.3736 25.2637 52.5776 25.2886V24.1841C52.5776 23.1563 53.4112 22.3228 54.439 22.3228H56.7104C57.7382 22.3228 58.5718 23.1563 58.5718 24.1841V35.6079C58.5718 36.6357 57.7382 37.4692 56.7104 37.4692H54.5503C54.3249 37.4692 54.1096 37.4265 53.9097 37.353C53.2995 37.5775 52.6575 37.6772 52.0063 37.6772C51.2574 37.6772 50.5224 37.5514 49.8345 37.2622L49.5425 37.1284C49.5325 37.1234 49.5221 37.118 49.5122 37.1128C48.899 36.7922 48.3607 36.3698 47.9136 35.8472L47.7271 35.6167C47.7248 35.6137 47.7224 35.6109 47.7202 35.6079H47.8823V33.2544L48.519 33.064C48.679 33.5972 48.9079 34.0719 49.2065 34.4878C49.5159 34.8931 49.9052 35.219 50.3745 35.4644C50.8438 35.699 51.3878 35.8159 52.0063 35.8159C52.5503 35.8159 53.0358 35.7198 53.4624 35.5278C53.8997 35.3252 54.2524 35.0002 54.519 34.5522H54.5503V35.6079H56.7104V24.1841ZM52.6577 31.4478C52.6577 31.2792 52.6458 31.1254 52.6245 30.9849L52.6001 30.8491L52.5981 30.8364C52.5869 30.7802 52.5739 30.7433 52.5649 30.7212L52.5493 30.688C52.5263 30.7399 52.4998 30.8077 52.478 30.8979C52.4457 31.0655 52.4272 31.2536 52.4272 31.4644C52.4273 31.6381 52.4476 31.8165 52.4907 32.0015C52.5102 32.0848 52.5362 32.1512 52.561 32.2065C52.5733 32.168 52.5881 32.1248 52.5981 32.0747C52.637 31.8803 52.6577 31.672 52.6577 31.4478ZM54.5122 31.7017C54.5002 31.9537 54.4704 32.1999 54.4224 32.4399L54.3667 32.6743C54.3027 32.9022 54.215 33.1123 54.103 33.3042C53.9537 33.5495 53.7506 33.7467 53.4946 33.896C53.2494 34.0453 52.9401 34.1196 52.5669 34.1196C52.215 34.1196 51.9107 34.0453 51.6548 33.896C51.4095 33.736 51.2014 33.5329 51.0308 33.2876C50.9108 33.0956 50.8147 32.8857 50.7427 32.6577L50.6782 32.4243C50.6222 32.1842 50.5877 31.9437 50.5737 31.7036L50.5669 31.4644C50.5669 31.123 50.5986 30.7971 50.6626 30.4878C50.7372 30.1679 50.8493 29.8854 50.9985 29.6401C51.1585 29.3949 51.3667 29.1977 51.6226 29.0483C51.8786 28.899 52.1936 28.8237 52.5669 28.8237C52.9401 28.8238 53.2494 28.899 53.4946 29.0483C53.7399 29.1977 53.9371 29.3949 54.0864 29.6401C54.2464 29.8748 54.3584 30.1522 54.4224 30.4722C54.4863 30.7814 54.519 31.1066 54.519 31.4478L54.5122 31.7017Z" fill="#AFAFAF"/>
<path d="M38.2612 27.3354C38.2615 26.3079 39.0949 25.4751 40.1226 25.4751H42.2817C42.5342 25.4751 42.7751 25.5256 42.9946 25.6167C43.5862 25.3793 44.2103 25.2505 44.8579 25.2505C45.5986 25.2505 46.356 25.3507 47.0444 25.644L47.0454 25.6431C47.0592 25.6486 47.0727 25.6549 47.0864 25.6606C47.0916 25.6629 47.0969 25.6652 47.1021 25.6675H47.1011C47.7325 25.9331 48.3038 26.3388 48.7427 26.9136H48.7437C48.7466 26.9174 48.7495 26.9214 48.7524 26.9253C48.7559 26.9299 48.7597 26.9343 48.7632 26.939H48.7622C49.0565 27.3238 49.2662 27.7472 49.4106 28.188C49.3396 28.2634 49.2711 28.342 49.2065 28.4243C48.908 28.8189 48.679 29.2778 48.519 29.8003C48.3698 30.3122 48.2944 30.8453 48.2944 31.3999C48.2944 31.9759 48.3697 32.5306 48.519 33.064C48.679 33.5972 48.9079 34.0719 49.2065 34.4878C49.3645 34.6947 49.544 34.8802 49.7437 35.0454V35.6079C49.7437 36.6357 48.9101 37.4692 47.8823 37.4692H45.6099C44.9224 37.4691 44.3236 37.095 44.0015 36.5405C43.6792 37.0947 43.0813 37.4692 42.394 37.4692H40.1226C39.0948 37.4692 38.2612 36.6357 38.2612 35.6079V35.0767C38.8506 34.6429 39.2938 33.9672 39.5903 33.0483H38.2612V32.0239H39.7349C39.7455 31.9493 39.7505 31.8799 39.7505 31.8159V31.5923C39.7505 31.0056 39.6653 30.44 39.4946 29.896C39.324 29.3521 39.0683 28.8774 38.7271 28.4722C38.588 28.2972 38.4323 28.1374 38.2612 27.9927V27.3354ZM40.1226 35.6079H42.394V31.272C42.394 30.4296 42.5329 29.8271 42.8101 29.4644C43.0873 29.0911 43.5354 28.9039 44.1538 28.9038C44.6977 28.9038 45.0772 29.0743 45.2905 29.4155C45.5039 29.7462 45.6099 30.2534 45.6099 30.936V35.6079H47.8823V30.52C47.8823 30.008 47.8338 29.5434 47.7378 29.1274C47.6524 28.701 47.4978 28.344 47.2739 28.0562C47.0499 27.7575 46.7409 27.5277 46.3462 27.3677C45.9622 27.197 45.4658 27.1118 44.8579 27.1118C44.3782 27.1119 43.9091 27.2239 43.4507 27.4478C42.9921 27.6611 42.6185 28.0079 42.3306 28.4878H42.2817V27.3354H40.1226V35.6079Z" fill="#AFAFAF"/>
<path d="M31.5034 33.3452C31.5036 33.3433 31.5042 33.3413 31.5044 33.3394L31.7827 33.2397L31.5034 33.3452ZM31.3013 31.9917C31.1519 31.725 30.9538 31.5061 30.7085 31.3354C30.4633 31.1543 30.1806 31.0104 29.8608 30.9038C29.7953 30.8812 29.7282 30.8625 29.6616 30.8413C29.6943 30.4716 29.7575 30.108 29.8501 29.7515H31.3013C31.2586 29.2397 31.1248 28.8184 30.9009 28.4878C30.8021 28.3297 30.6899 28.1874 30.5659 28.0591C30.7799 27.7119 31.0295 27.3876 31.3169 27.0903C31.8653 26.5124 32.5136 26.0625 33.2446 25.7427L33.2573 25.7378L33.5513 25.6206C34.2427 25.3679 34.9707 25.2505 35.7183 25.2505C36.6057 25.2505 37.4712 25.4154 38.2661 25.8013H38.2671C38.9994 26.1522 39.6366 26.6417 40.1489 27.2729H40.1499C40.167 27.2932 40.1829 27.315 40.1997 27.3354H40.1226V35.6079H40.3481C40.061 35.9811 39.7253 36.316 39.3335 36.5991L39.1274 36.7397C38.1116 37.3951 36.9449 37.6772 35.7183 37.6772C34.9796 37.6772 34.2599 37.5759 33.5767 37.3511L33.2856 37.2466C33.2756 37.2427 33.2654 37.2389 33.2554 37.2349C32.5042 36.9282 31.8351 36.484 31.2778 35.894C31.022 35.6232 30.7969 35.3301 30.6001 35.019C30.8342 34.8265 31.0309 34.5963 31.189 34.3276C31.3567 34.048 31.4613 33.7206 31.5034 33.3452L31.7827 33.2397C31.9853 33.773 32.2678 34.2318 32.6304 34.6157C32.993 34.9997 33.4359 35.2989 33.9585 35.5122C34.481 35.7148 35.0678 35.8159 35.7183 35.8159C36.6568 35.8159 37.4574 35.6028 38.1187 35.1763C38.7799 34.7497 39.2703 34.0401 39.5903 33.0483H37.5903C37.5156 33.3041 37.3132 33.5492 36.9829 33.7837C36.6522 34.0077 36.257 34.1196 35.7983 34.1196C35.1585 34.1196 34.6679 33.9541 34.3267 33.6235C33.9855 33.2929 33.7991 32.7598 33.7671 32.0239H39.7349C39.7455 31.9493 39.7505 31.8799 39.7505 31.8159V31.5923C39.7505 31.079 39.6858 30.5817 39.5552 30.1011L39.4946 29.896C39.324 29.3521 39.0683 28.8774 38.7271 28.4722C38.3964 28.0562 37.9744 27.7253 37.4624 27.48C36.9611 27.2347 36.3795 27.1118 35.7183 27.1118C35.0891 27.1119 34.5132 27.2238 33.9907 27.4478C33.4788 27.6717 33.0359 27.9809 32.6626 28.3755C32.2893 28.7594 32.001 29.2182 31.7983 29.7515L31.7271 29.9536C31.5719 30.4297 31.4946 30.9386 31.4946 31.48L31.4995 31.7173C31.5205 32.2656 31.6147 32.7731 31.7827 33.2397L31.5044 33.3394C31.5181 33.2154 31.5249 33.086 31.5249 32.9517C31.5249 32.5678 31.4506 32.2476 31.3013 31.9917ZM35.6548 28.8237C36.2094 28.8237 36.6205 28.9733 36.8872 29.272C37.1643 29.5706 37.3558 30.0079 37.4624 30.5835H33.7671C33.7778 30.4236 33.8095 30.242 33.8628 30.0396C33.9268 29.8372 34.0281 29.6455 34.1665 29.4644C34.3158 29.2831 34.5081 29.1334 34.7427 29.0161C34.9773 28.8881 35.2815 28.8237 35.6548 28.8237Z" fill="#AFAFAF"/>
<path d="M22.1918 29.7681C22.1918 29.0114 22.3339 28.2167 22.7563 27.5054L22.7787 27.4692L22.9252 27.2505C23.2753 26.7588 23.7206 26.3515 24.2533 26.0474C24.8015 25.7244 25.3969 25.5158 26.0199 25.4067V25.4077C26.5561 25.3035 27.1009 25.2505 27.6527 25.2505C28.2194 25.2505 28.7771 25.3046 29.3227 25.4165H29.3217C29.9344 25.5399 30.5204 25.7566 31.057 26.0854L31.2719 26.2251C31.7414 26.5524 32.1314 26.9647 32.4408 27.4438H32.4418C32.4473 27.452 32.452 27.461 32.4574 27.4692C32.4644 27.4801 32.4721 27.4905 32.4789 27.5015H32.477C32.6234 27.7261 32.7437 27.9598 32.8393 28.2007C32.7789 28.2571 32.7197 28.3151 32.6625 28.3755C32.2892 28.7594 32.0009 29.2182 31.7983 29.7515C31.5956 30.2848 31.4945 30.8613 31.4945 31.48C31.4945 32.1199 31.5907 32.7065 31.7826 33.2397C31.9852 33.773 32.2677 34.2318 32.6303 34.6157C32.7364 34.7281 32.8503 34.8324 32.9701 34.9302C32.9163 35.0449 32.8585 35.1588 32.7924 35.27L32.7934 35.271C32.4773 35.8083 32.0631 36.2658 31.5609 36.6284L31.3402 36.7778C30.7791 37.1349 30.1614 37.3647 29.5141 37.4907L29.515 37.4917C29.5061 37.4936 29.4967 37.4947 29.4877 37.4966C29.4802 37.498 29.4728 37.5001 29.4652 37.5015L29.4643 37.5005C28.9012 37.6175 28.3284 37.6772 27.7484 37.6772C27.2948 37.6772 26.8456 37.6426 26.4018 37.5737L25.9594 37.4937C25.3918 37.3748 24.8493 37.1806 24.3451 36.9009L24.1313 36.7749L24.1098 36.7622C23.5971 36.436 23.1634 36.022 22.8119 35.5356L22.6664 35.3228L22.6332 35.269C22.2099 34.5635 22.0315 33.7749 22.0014 32.9917C21.9819 32.4861 22.1691 31.994 22.5199 31.6294C22.5514 31.5967 22.5851 31.5667 22.6186 31.5366C22.3101 30.9655 22.1918 30.354 22.1918 29.7681ZM24.0668 30.0298C24.0948 30.2818 24.1648 30.5038 24.2768 30.6958L24.3979 30.8726C24.5278 31.0426 24.6846 31.1918 24.8686 31.3198C25.1139 31.4798 25.3913 31.6136 25.7006 31.7202C26.0206 31.8162 26.3465 31.9014 26.6772 31.9761C27.4876 32.1467 28.1169 32.3172 28.5649 32.4878L28.726 32.5562C29.0772 32.7242 29.2533 32.9577 29.2533 33.2563L29.2436 33.4019C29.2256 33.5419 29.1808 33.6641 29.1088 33.7681C29.0128 33.896 28.8899 34.0031 28.7406 34.0884C28.6021 34.1629 28.4422 34.2215 28.2611 34.2642C28.0905 34.2961 27.925 34.312 27.765 34.312C27.541 34.312 27.3221 34.2853 27.1088 34.2319C26.9062 34.1786 26.7248 34.0984 26.5649 33.9917C26.4049 33.8744 26.2711 33.7307 26.1645 33.5601C26.0685 33.3787 26.0209 33.1647 26.0209 32.9194H23.8608C23.8821 33.4741 24.0049 33.9387 24.2289 34.312C24.4636 34.6746 24.7569 34.9679 25.1088 35.1919C25.4715 35.4159 25.8826 35.5764 26.3412 35.6724C26.7996 35.7683 27.2687 35.8159 27.7484 35.8159C28.2176 35.8159 28.6766 35.7683 29.1244 35.6724C29.5258 35.5977 29.8868 35.4694 30.2065 35.2886L30.3412 35.2075C30.693 34.9836 30.9756 34.6902 31.1889 34.3276C31.3848 34.001 31.4954 33.6091 31.5199 33.1519L31.5248 32.9517C31.5248 32.5678 31.4505 32.2476 31.3012 31.9917C31.1519 31.725 30.9537 31.5061 30.7084 31.3354C30.4632 31.1543 30.1805 31.0104 29.8608 30.9038C29.5515 30.7972 29.2314 30.707 28.9008 30.6323C28.5808 30.5577 28.2658 30.4883 27.9565 30.4243C27.6473 30.3603 27.3697 30.2909 27.1244 30.2163C26.9487 30.1524 26.7972 30.0757 26.6693 29.9878L26.5492 29.896C26.3999 29.768 26.3246 29.6026 26.3246 29.3999C26.3246 29.2292 26.3672 29.0955 26.4525 28.9995C26.5379 28.8929 26.6399 28.8136 26.7572 28.7603C26.8852 28.707 27.024 28.6742 27.1733 28.6636C27.3224 28.6423 27.4614 28.6323 27.5893 28.6323C27.9944 28.6324 28.3464 28.7117 28.6449 28.8716C28.9435 29.0209 29.1089 29.3144 29.141 29.7515H31.3012C31.2585 29.2397 31.1247 28.8184 30.9008 28.4878C30.6876 28.1467 30.4157 27.875 30.0854 27.6724C29.7547 27.4697 29.3753 27.3251 28.9486 27.2397C28.5327 27.1544 28.1006 27.1118 27.6527 27.1118C27.2049 27.1118 26.7677 27.1545 26.3412 27.2397C25.9146 27.3144 25.5302 27.4531 25.1889 27.6558C24.8476 27.8477 24.5702 28.1143 24.3568 28.4556C24.1542 28.7969 24.0531 29.2347 24.0531 29.7681L24.0668 30.0298Z" fill="#AFAFAF"/>
<defs>
<filter id="filter0_f_433_647" x="15.2036" y="0.894409" width="49.5928" height="58.756" filterUnits="userSpaceOnUse" color-interpolation-filters="sRGB">
<feFlood flood-opacity="0" result="BackgroundImageFix"/>
<feBlend mode="normal" in="SourceGraphic" in2="BackgroundImageFix" result="shape"/>
<feGaussianBlur stdDeviation="2" result="effect1_foregroundBlur_433_647"/>
</filter>
</defs>
</svg>

<svg xmlns="http://www.w3.org/2000/svg" width="81" height="60" fill="none"><path fill="#2E2E2E" d="M0 6h80.572v48H0z"/><g filter="url(#a)" opacity=".3"><ellipse cx="40" cy="30.272" fill="#000" rx="20" ry="26" transform="rotate(20 40 30.272)"/></g><path fill="#AFAFAF" d="M56.71 24.184H54.44v4.16h-.032a2.38 2.38 0 0 0-1.056-.912 3.138 3.138 0 0 0-1.392-.32c-.608 0-1.142.123-1.6.368-.459.235-.843.55-1.153.944l-.108.15c-.246.36-.439.769-.579 1.226a5.687 5.687 0 0 0-.225 1.6l.015.428c.028.424.098.836.21 1.236l-.637.19V30.52c0-.512-.048-.977-.144-1.393-.086-.426-.24-.783-.464-1.07l-.022-.027a5.89 5.89 0 0 1 .47-.729l.02-.025a5.29 5.29 0 0 1 1.77-1.453c.762-.4 1.595-.573 2.447-.573.208 0 .415.014.619.039v-1.105c0-1.028.833-1.861 1.861-1.861h2.271c1.028 0 1.862.833 1.862 1.861v11.424a1.862 1.862 0 0 1-1.862 1.861h-2.16c-.225 0-.44-.043-.64-.116a5.488 5.488 0 0 1-1.904.324 5.57 5.57 0 0 1-2.172-.415l-.292-.134-.03-.015a5.349 5.349 0 0 1-1.598-1.266l-.187-.23-.007-.01h.162v-2.353l.637-.19a4.77 4.77 0 0 0 .688 1.424c.309.405.698.731 1.167.976.47.235 1.014.352 1.632.352.544 0 1.03-.096 1.456-.288.438-.203.79-.528 1.057-.976h.031v1.056h2.16V24.184Zm-4.052 7.264c0-.169-.012-.323-.034-.463l-.024-.136-.002-.013a.627.627 0 0 0-.033-.115l-.016-.033c-.023.052-.05.12-.071.21-.032.168-.05.356-.05.566 0 .174.02.353.063.538.02.083.045.15.07.204.012-.038.027-.081.037-.131.039-.195.06-.403.06-.627Zm1.854.254a4.964 4.964 0 0 1-.09.738l-.055.234a2.682 2.682 0 0 1-.264.63c-.15.245-.352.443-.608.592-.246.15-.555.224-.928.224a1.78 1.78 0 0 1-.912-.224 2.257 2.257 0 0 1-.624-.608 2.738 2.738 0 0 1-.288-.63l-.065-.234a4.26 4.26 0 0 1-.104-.72l-.007-.24c0-.341.032-.667.096-.976.074-.32.186-.603.336-.848.16-.245.368-.442.624-.592.256-.149.57-.224.944-.224.373 0 .682.075.928.224.245.15.442.347.591.592.16.235.272.512.336.832.064.31.097.635.097.976l-.007.254Z"/><path fill="#AFAFAF" d="M38.261 27.335c0-1.027.834-1.86 1.862-1.86h2.159c.252 0 .493.05.713.142a4.977 4.977 0 0 1 1.863-.367c.74 0 1.498.1 2.186.394h.001c.014.005.028.01.041.017l.016.006a3.971 3.971 0 0 1 1.64 1.247h.002l.008.011.011.014c.294.385.503.808.648 1.249-.071.075-.14.154-.205.236a4.387 4.387 0 0 0-.687 1.376 5.687 5.687 0 0 0-.225 1.6c0 .576.076 1.13.225 1.664a4.77 4.77 0 0 0 .688 1.424 3.4 3.4 0 0 0 .537.557v.563a1.862 1.862 0 0 1-1.862 1.861H45.61a1.859 1.859 0 0 1-1.608-.928c-.323.554-.92.928-1.608.928h-2.271a1.862 1.862 0 0 1-1.862-1.861v-.531c.59-.434 1.033-1.11 1.33-2.029h-1.33v-1.024h1.474c.01-.075.016-.144.016-.208v-.224c0-.586-.086-1.152-.256-1.696a4.077 4.077 0 0 0-.768-1.424 3.39 3.39 0 0 0-.466-.48v-.657Zm1.862 8.273h2.271v-4.336c0-.842.139-1.445.416-1.808.277-.373.725-.56 1.344-.56.544 0 .923.17 1.136.512.214.33.32.837.32 1.52v4.672h2.272V30.52c0-.512-.048-.977-.144-1.393-.086-.426-.24-.783-.464-1.07a2.125 2.125 0 0 0-.928-.69c-.384-.17-.88-.255-1.488-.255-.48 0-.949.112-1.407.336-.459.213-.833.56-1.12 1.04h-.05v-1.153h-2.158v8.273Z"/><path fill="#AFAFAF" d="m31.503 33.345.001-.006.279-.1-.28.106Zm-.202-1.353a1.95 1.95 0 0 0-.592-.657 3.026 3.026 0 0 0-.848-.431c-.066-.023-.133-.041-.2-.063.033-.37.096-.733.19-1.09h1.45c-.042-.511-.176-.933-.4-1.263a2.59 2.59 0 0 0-.335-.429 5.67 5.67 0 0 1 .75-.969 5.892 5.892 0 0 1 1.929-1.347l.012-.005.294-.117a6.279 6.279 0 0 1 2.167-.37c.888 0 1.753.164 2.548.55h.001c.732.351 1.37.84 1.882 1.472.018.02.034.042.05.062h-.076v8.273h.225a4.899 4.899 0 0 1-1.014.991l-.207.14c-1.015.656-2.182.938-3.409.938a6.827 6.827 0 0 1-2.141-.326l-.291-.104-.03-.012a5.608 5.608 0 0 1-1.978-1.341 5.738 5.738 0 0 1-.678-.875c.234-.192.43-.423.589-.691.168-.28.272-.607.314-.983l.28-.105c.202.533.485.992.847 1.376.363.384.806.683 1.328.896.523.203 1.11.304 1.76.304.939 0 1.74-.213 2.4-.64.662-.426 1.152-1.136 1.472-2.128h-2c-.074.256-.277.501-.607.736-.33.224-.726.336-1.185.336-.64 0-1.13-.166-1.471-.496-.341-.331-.528-.864-.56-1.6h5.968c.01-.075.016-.144.016-.208v-.224c0-.513-.065-1.01-.196-1.49l-.06-.206a4.077 4.077 0 0 0-.768-1.424 3.543 3.543 0 0 0-1.265-.992c-.5-.245-1.083-.368-1.744-.368-.629 0-1.205.112-1.727.336a4.03 4.03 0 0 0-1.328.927 3.971 3.971 0 0 0-.865 1.377l-.07.202a4.896 4.896 0 0 0-.233 1.526l.005.237a5.04 5.04 0 0 0 .283 1.523l-.279.1c.014-.125.02-.254.02-.388 0-.384-.073-.704-.223-.96Zm4.354-3.168c.554 0 .965.15 1.232.448.277.299.469.736.575 1.312h-3.695c.01-.16.042-.342.096-.544.064-.203.165-.395.303-.576.15-.18.342-.33.577-.448.234-.128.538-.192.912-.192Z"/><path fill="#AFAFAF" d="M22.192 29.768c0-.757.142-1.551.564-2.263l.023-.036.146-.219a4.14 4.14 0 0 1 1.328-1.203 5.238 5.238 0 0 1 1.767-.64 8.544 8.544 0 0 1 3.303.01h-.001c.612.123 1.198.34 1.735.668l.215.14c.47.327.86.74 1.169 1.219l.016.025.022.032h-.002c.146.225.267.459.362.7a3.97 3.97 0 0 0-1.041 1.55 4.826 4.826 0 0 0-.303 1.729c0 .64.096 1.226.288 1.76.202.533.485.992.847 1.376.106.112.22.216.34.314a3.917 3.917 0 0 1-.178.34l.001.001c-.316.537-.73.995-1.232 1.357l-.22.15a5.24 5.24 0 0 1-1.827.713h.001l-.027.006-.023.005V37.5a8.42 8.42 0 0 1-1.717.177c-.453 0-.902-.034-1.346-.103l-.443-.08a5.737 5.737 0 0 1-1.614-.593l-.214-.126-.021-.013a4.722 4.722 0 0 1-1.298-1.226l-.146-.213-.033-.054c-.423-.706-.601-1.494-.632-2.277-.02-.506.168-.998.519-1.363.031-.032.065-.062.099-.092a3.692 3.692 0 0 1-.427-1.769Zm1.875.262c.028.252.098.474.21.666l.12.177c.13.17.288.319.472.447.245.16.522.294.832.4.32.096.645.181.976.256.81.17 1.44.341 1.888.512l.161.068c.351.168.527.402.527.7l-.01.146a.815.815 0 0 1-.134.366 1.195 1.195 0 0 1-.368.32 1.958 1.958 0 0 1-.48.176 2.699 2.699 0 0 1-1.152-.032 1.794 1.794 0 0 1-.544-.24 1.546 1.546 0 0 1-.4-.432 1.352 1.352 0 0 1-.144-.64h-2.16c.021.554.144 1.019.368 1.392.235.363.528.656.88.88.362.224.774.384 1.232.48a6.854 6.854 0 0 0 2.783 0 3.473 3.473 0 0 0 1.082-.383l.135-.081c.352-.224.635-.518.848-.88.196-.327.306-.719.33-1.176l.006-.2c0-.384-.074-.704-.224-.96a1.948 1.948 0 0 0-.593-.657 3.027 3.027 0 0 0-.847-.431 9.098 9.098 0 0 0-.96-.272c-.32-.074-.635-.144-.945-.208a9.491 9.491 0 0 1-.832-.208 2.019 2.019 0 0 1-.455-.228l-.12-.092a.624.624 0 0 1-.224-.496c0-.17.042-.304.128-.4a.823.823 0 0 1 .304-.24c.128-.053.267-.086.416-.096.15-.022.288-.032.416-.032.405 0 .757.08 1.056.24.299.149.464.442.496.88h2.16c-.042-.512-.176-.934-.4-1.264a2.486 2.486 0 0 0-.816-.816 3.454 3.454 0 0 0-1.136-.432 6.68 6.68 0 0 0-2.607 0 3.376 3.376 0 0 0-1.153.416 2.298 2.298 0 0 0-.832.8c-.203.34-.304.779-.304 1.312l.014.262Z"/><defs><filter id="a" width="49.593" height="58.756" x="15.204" y=".894" color-interpolation-filters="sRGB" filterUnits="userSpaceOnUse"><feFlood flood-opacity="0" result="BackgroundImageFix"/><feBlend in="SourceGraphic" in2="BackgroundImageFix" result="shape"/><feGaussianBlur result="effect1_foregroundBlur_433_647" stdDeviation="2"/></filter></defs></svg>
